assets/1. Faces/Smiling face with heart-eyes/Color/smiling_face_with_heart-eyes_color.svg

<svg width="100%" height="100%" viewBox="0 0 32 32" fill="none" xmlns="http://www.w3.org/2000/svg">
<path d="M15.9989 29.9978C25.3333 29.9978 29.9978 23.7303 29.9978 15.9989C29.9978 8.26751 25.3333 2 15.9989 2C6.66443 2 2 8.26751 2 15.9989C2 23.7303 6.66443 29.9978 15.9989 29.9978Z" fill="url(#paint0_radial_23_456)"/>
<path d="M15.9989 29.9978C25.3333 29.9978 29.9978 23.7303 29.9978 15.9989C29.9978 8.26751 25.3333 2 15.9989 2C6.66443 2 2 8.26751 2 15.9989C2 23.7303 6.66443 29.9978 15.9989 29.9978Z" fill="url(#paint1_radial_23_456)"/>
<path d="M15.9989 29.9978C25.3333 29.9978 29.9978 23.7303 29.9978 15.9989C29.9978 8.26751 25.3333 2 15.9989 2C6.66443 2 2 8.26751 2 15.9989C2 23.7303 6.66443 29.9978 15.9989 29.9978Z" fill="url(#paint2_radial_23_456)"/>
<path d="M15.9989 29.9978C25.3333 29.9978 29.9978 23.7303 29.9978 15.9989C29.9978 8.26751 25.3333 2 15.9989 2C6.66443 2 2 8.26751 2 15.9989C2 23.7303 6.66443 29.9978 15.9989 29.9978Z" fill="url(#paint3_radial_23_456)" fill-opacity="0.6"/>
<path d="M15.9989 29.9978C25.3333 29.9978 29.9978 23.7303 29.9978 15.9989C29.9978 8.26751 25.3333 2 15.9989 2C6.66443 2 2 8.26751 2 15.9989C2 23.7303 6.66443 29.9978 15.9989 29.9978Z" fill="url(#paint4_radial_23_456)"/>
<path d="M15.9989 29.9978C25.3333 29.9978 29.9978 23.7303 29.9978 15.9989C29.9978 8.26751 25.3333 2 15.9989 2C6.66443 2 2 8.26751 2 15.9989C2 23.7303 6.66443 29.9978 15.9989 29.9978Z" fill="url(#paint5_radial_23_456)"/>
<path d="M15.9989 29.9978C25.3333 29.9978 29.9978 23.7303 29.9978 15.9989C29.9978 8.26751 25.3333 2 15.9989 2C6.66443 2 2 8.26751 2 15.9989C2 23.7303 6.66443 29.9978 15.9989 29.9978Z" fill="url(#paint6_radial_23_456)"/>
<path d="M15.9989 29.9978C25.3333 29.9978 29.9978 23.7303 29.9978 15.9989C29.9978 8.26751 25.3333 2 15.9989 2C6.66443 2 2 8.26751 2 15.9989C2 23.7303 6.66443 29.9978 15.9989 29.9978Z" fill="url(#paint7_radial_23_456)"/>
<path d="M16 25C7 25 7 16 7 16H25C25 16 25 25 16 25Z" fill="url(#paint8_radial_23_456)"/>
<path d="M8 16.5V16H24V16.5C24 17.0523 23.5523 17.5 23 17.5H9C8.44772 17.5 8 17.0523 8 16.5Z" fill="url(#paint9_linear_23_456)"/>
<path d="M10.5002 15.5C10.5002 15.5 7.49998 15 5.4501 12.6342C3.35976 10.2217 5.31118 6.7673 9.00012 8.50002C10.5771 5.92775 14.4903 6.87914 13.97 10C13.4698 13 10.5002 15.5 10.5002 15.5Z" fill="url(#paint10_radial_23_456)"/>
<path d="M19.5172 15.5C19.5172 15.5 22.5174 15 24.5672 12.6342C26.6576 10.2217 24.7062 6.7673 21.0172 8.50002C19.4402 5.92775 15.527 6.87914 16.0473 10C16.5475 13 19.5172 15.5 19.5172 15.5Z" fill="url(#paint11_radial_23_456)"/>
<path d="M10.5928 14.2704C9.54671 13.9405 7.7854 13.1917 6.43594 11.6342C4.3456 9.22172 6.29702 5.7673 9.98596 7.50002C11.5629 4.92775 15.4761 5.87914 14.9558 9C14.6074 11.0898 13.0607 12.937 12.1542 13.8655C11.745 14.2846 11.1514 14.4466 10.5928 14.2704Z" fill="url(#paint12_linear_23_456)"/>
<path d="M21.4104 14.2704C22.4565 13.9405 24.2178 13.1917 25.5672 11.6342C27.6576 9.22172 25.7062 5.7673 22.0172 7.50002C20.4402 4.92775 16.527 5.87914 17.0473 9C17.3957 11.0898 18.9425 12.937 19.849 13.8655C20.2582 14.2846 20.8518 14.4466 21.4104 14.2704Z" fill="url(#paint13_linear_23_456)"/>
<ellipse cx="9.43198" cy="9.31066" rx="1.5" ry="3" transform="rotate(-45 9.43198 9.31066)" fill="url(#paint14_radial_23_456)"/>
<ellipse cx="20.9192" cy="9.19846" rx="2" ry="3" transform="rotate(-12.9659 20.9192 9.19846)" fill="url(#paint15_radial_23_456)"/>
<circle cx="13.0784" cy="7.62382" r="1.5" transform="rotate(45 13.0784 7.62382)" fill="url(#paint16_radial_23_456)"/>
<ellipse cx="24.3713" cy="8.62382" rx="1" ry="2" transform="rotate(45 24.3713 8.62382)" fill="url(#paint17_radial_23_456)"/>
<defs>
<radialGradient id="paint0_radial_23_456" cx="0" cy="0" r="1" gradientUnits="userSpaceOnUse" gradientTransform="translate(25.5 9) rotate(132.839) scale(37.5033)">
<stop stop-color="#FFF478"/>
<stop offset="0.474827" stop-color="#FFB02E"/>
<stop offset="1" stop-color="#F70A8D"/>
</radialGradient>
<radialGradient id="paint1_radial_23_456" cx="0" cy="0" r="1" gradientUnits="userSpaceOnUse" gradientTransform="translate(25.5 9) rotate(131.878) scale(38.9487)">
<stop stop-color="#FFF478"/>
<stop offset="0.474827" stop-color="#FFB02E"/>
<stop offset="1" stop-color="#F70A8D"/>
</radialGradient>
<radialGradient id="paint2_radial_23_456" cx="0" cy="0" r="1" gradientUnits="userSpaceOnUse" gradientTransform="translate(16 12.5) rotate(101.31) scale(17.8466 22.8581)">
<stop offset="0.787821" stop-color="#F59639" stop-opacity="0"/>
<stop offset="0.972509" stop-color="#FF7DCE"/>
</radialGradient>
<radialGradient id="paint3_radial_23_456" cx="0" cy="0" r="1" gradientUnits="userSpaceOnUse" gradientTransform="translate(18 14) rotate(135) scale(41.0122)">
<stop offset="0.314853" stop-opacity="0"/>
<stop offset="1"/>
</radialGradient>
<radialGradient id="paint4_radial_23_456" cx="0" cy="0" r="1" gradientUnits="userSpaceOnUse" gradientTransform="translate(16 17) rotate(77.692) scale(28.1469)">
<stop offset="0.507903" stop-color="#7D6133" stop-opacity="0"/>
<stop offset="1" stop-color="#715B32"/>
</radialGradient>
<radialGradient id="paint5_radial_23_456" cx="0" cy="0" r="1" gradientUnits="userSpaceOnUse" gradientTransform="translate(16.5 16.5) rotate(55.7131) scale(13.3135 9.65032)">
<stop stop-color="#FFB849"/>
<stop offset="1" stop-color="#FFB847" stop-opacity="0"/>
</radialGradient>
<radialGradient id="paint6_radial_23_456" cx="0" cy="0" r="1" gradientUnits="userSpaceOnUse" gradientTransform="translate(20.5 18) rotate(9.86581) scale(11.6726)">
<stop stop-color="#FFA64B"/>
<stop offset="0.900412" stop-color="#FFAE46" stop-opacity="0"/>
</radialGradient>
<radialGradient id="paint7_radial_23_456" cx="0" cy="0" r="1" gradientUnits="userSpaceOnUse" gradientTransform="translate(17.5 15) rotate(43.9708) scale(59.0529)">
<stop offset="0.185425" stop-opacity="0"/>
<stop offset="1" stop-opacity="0.4"/>
</radialGradient>
<radialGradient id="paint8_radial_23_456" cx="0" cy="0" r="1" gradientUnits="userSpaceOnUse" gradientTransform="translate(16 27) rotate(-90) scale(11 22)">
<stop stop-color="#F70A8D"/>
<stop offset="1" stop-color="#89029C"/>
</radialGradient>
<linearGradient id="paint9_linear_23_456" x1="16" y1="16" x2="16" y2="17.5" gradientUnits="userSpaceOnUse">
<stop stop-color="#ECCDFF"/>
<stop offset="1" stop-color="white"/>
</linearGradient>
<radialGradient id="paint10_radial_23_456" cx="0" cy="0" r="1" gradientUnits="userSpaceOnUse" gradientTransform="translate(14 14) rotate(-155.376) scale(13.2004 5.48694)">
<stop stop-color="#CC7521"/>
<stop offset="1" stop-color="#E6872B" stop-opacity="0"/>
</radialGradient>
<radialGradient id="paint11_radial_23_456" cx="0" cy="0" r="1" gradientUnits="userSpaceOnUse" gradientTransform="translate(20 11) rotate(122.005) scale(4.71699)">
<stop stop-color="#EC812A"/>
<stop offset="1" stop-color="#FBA84C" stop-opacity="0"/>
</radialGradient>
<linearGradient id="paint12_linear_23_456" x1="12.9858" y1="7" x2="9.98584" y2="14" gradientUnits="userSpaceOnUse">
<stop stop-color="#CA0B4A"/>
<stop offset="1" stop-color="#F70A8D"/>
</linearGradient>
<linearGradient id="paint13_linear_23_456" x1="24" y1="7" x2="19" y2="15" gradientUnits="userSpaceOnUse">
<stop stop-color="#CA0B4A"/>
<stop offset="1" stop-color="#F70A8D"/>
</linearGradient>
<radialGradient id="paint14_radial_23_456" cx="0" cy="0" r="1" gradientUnits="userSpaceOnUse" gradientTransform="translate(9.43198 9.31066) rotate(90) scale(3.10148 1.5764)">
<stop stop-color="#EC6686"/>
<stop offset="1" stop-color="#EC6686" stop-opacity="0"/>
</radialGradient>
<radialGradient id="paint15_radial_23_456" cx="0" cy="0" r="1" gradientUnits="userSpaceOnUse" gradientTransform="translate(21.0425 9.02318) rotate(81.1645) scale(2.69258 1.82475)">
<stop stop-color="#EC6686"/>
<stop offset="0.259696" stop-color="#EC6686"/>
<stop offset="1" stop-color="#EC6686" stop-opacity="0"/>
</radialGradient>
<radialGradient id="paint16_radial_23_456" cx="0" cy="0" r="1" gradientUnits="userSpaceOnUse" gradientTransform="translate(13.0784 7.62382) rotate(90) scale(1.5)">
<stop stop-color="#EC6686"/>
<stop offset="1" stop-color="#EC6686" stop-opacity="0"/>
</radialGradient>
<radialGradient id="paint17_radial_23_456" cx="0" cy="0" r="1" gradientUnits="userSpaceOnUse" gradientTransform="translate(24.3713 8.62382) rotate(90) scale(2 1)">
<stop stop-color="#EC6686"/>
<stop offset="1" stop-color="#EC6686" stop-opacity="0"/>
</radialGradient>
</defs>
</svg>

<svg width="100%" height="100%" viewBox="0 0 32 32" xmlns="http://www.w3.org/2000/svg"><path fill="url(#a)" d="M15.999 29.998c9.334 0 13.999-6.268 13.999-14 0-7.73-4.665-13.998-14-13.998C6.665 2 2 8.268 2 15.999s4.664 13.999 13.999 13.999"/><path fill="url(#b)" d="M15.999 29.998c9.334 0 13.999-6.268 13.999-14 0-7.73-4.665-13.998-14-13.998C6.665 2 2 8.268 2 15.999s4.664 13.999 13.999 13.999"/><path fill="url(#c)" d="M15.999 29.998c9.334 0 13.999-6.268 13.999-14 0-7.73-4.665-13.998-14-13.998C6.665 2 2 8.268 2 15.999s4.664 13.999 13.999 13.999"/><path fill="url(#d)" fill-opacity=".6" d="M15.999 29.998c9.334 0 13.999-6.268 13.999-14 0-7.73-4.665-13.998-14-13.998C6.665 2 2 8.268 2 15.999s4.664 13.999 13.999 13.999"/><path fill="url(#e)" d="M15.999 29.998c9.334 0 13.999-6.268 13.999-14 0-7.73-4.665-13.998-14-13.998C6.665 2 2 8.268 2 15.999s4.664 13.999 13.999 13.999"/><path fill="url(#f)" d="M15.999 29.998c9.334 0 13.999-6.268 13.999-14 0-7.73-4.665-13.998-14-13.998C6.665 2 2 8.268 2 15.999s4.664 13.999 13.999 13.999"/><path fill="url(#g)" d="M15.999 29.998c9.334 0 13.999-6.268 13.999-14 0-7.73-4.665-13.998-14-13.998C6.665 2 2 8.268 2 15.999s4.664 13.999 13.999 13.999"/><path fill="url(#h)" d="M15.999 29.998c9.334 0 13.999-6.268 13.999-14 0-7.73-4.665-13.998-14-13.998C6.665 2 2 8.268 2 15.999s4.664 13.999 13.999 13.999"/><path fill="url(#i)" d="M16 25c-9 0-9-9-9-9h18s0 9-9 9"/><path fill="url(#j)" d="M8 16.5V16h16v.5a1 1 0 0 1-1 1H9a1 1 0 0 1-1-1"/><path fill="url(#k)" d="M10.5 15.5s-3-.5-5.05-2.866C3.36 10.222 5.311 6.767 9 8.5c1.577-2.572 5.49-1.62 4.97 1.5-.5 3-3.47 5.5-3.47 5.5"/><path fill="url(#l)" d="M19.517 15.5s3-.5 5.05-2.866c2.09-2.412.14-5.867-3.55-4.134-1.577-2.572-5.49-1.62-4.97 1.5.5 3 3.47 5.5 3.47 5.5"/><path fill="url(#m)" d="M10.593 14.27c-1.046-.33-2.808-1.078-4.157-2.636-2.09-2.412-.139-5.867 3.55-4.134 1.577-2.572 5.49-1.62 4.97 1.5-.349 2.09-1.895 3.937-2.802 4.866-.409.419-1.003.58-1.561.404"/><path fill="url(#n)" d="M21.41 14.27c1.046-.33 2.808-1.078 4.157-2.636 2.09-2.412.14-5.867-3.55-4.134-1.577-2.572-5.49-1.62-4.97 1.5.349 2.09 1.895 3.937 2.802 4.866.41.419 1.003.58 1.561.404"/><ellipse cx="9.432" cy="9.311" fill="url(#o)" rx="1.5" ry="3" transform="rotate(-45 9.432 9.31)"/><ellipse cx="20.919" cy="9.198" fill="url(#p)" rx="2" ry="3" transform="rotate(-12.966 20.92 9.198)"/><circle cx="13.078" cy="7.624" r="1.5" fill="url(#q)" transform="rotate(45 13.078 7.624)"/><ellipse cx="24.371" cy="8.624" fill="url(#r)" rx="1" ry="2" transform="rotate(45 24.371 8.624)"/><defs><radialGradient id="a" cx="0" cy="0" r="1" gradientTransform="rotate(132.839 10.786 10.065)scale(37.5033)" gradientUnits="userSpaceOnUse"><stop stop-color="#FFF478"/><stop offset=".475" stop-color="#FFB02E"/><stop offset="1" stop-color="#F70A8D"/></radialGradient><radialGradient id="b" cx="0" cy="0" r="1" gradientTransform="rotate(131.878 10.74 10.193)scale(38.9487)" gradientUnits="userSpaceOnUse"><stop stop-color="#FFF478"/><stop offset=".475" stop-color="#FFB02E"/><stop offset="1" stop-color="#F70A8D"/></radialGradient><radialGradient id="c" cx="0" cy="0" r="1" gradientTransform="rotate(101.31 2.876 12.808)scale(17.8466 22.8581)" gradientUnits="userSpaceOnUse"><stop offset=".788" stop-color="#F59639" stop-opacity="0"/><stop offset=".973" stop-color="#FF7DCE"/></radialGradient><radialGradient id="d" cx="0" cy="0" r="1" gradientTransform="matrix(-29 29 -29 -29 18 14)" gradientUnits="userSpaceOnUse"><stop offset=".315" stop-opacity="0"/><stop offset="1"/></radialGradient><radialGradient id="e" cx="0" cy="0" r="1" gradientTransform="rotate(77.692 -2.555 18.434)scale(28.1469)" gradientUnits="userSpaceOnUse"><stop offset=".508" stop-color="#7D6133" stop-opacity="0"/><stop offset="1" stop-color="#715B32"/></radialGradient><radialGradient id="f" cx="0" cy="0" r="1" gradientTransform="rotate(55.713 -7.36 23.86)scale(13.3135 9.65032)" gradientUnits="userSpaceOnUse"><stop stop-color="#FFB849"/><stop offset="1" stop-color="#FFB847" stop-opacity="0"/></radialGradient><radialGradient id="g" cx="0" cy="0" r="1" gradientTransform="matrix(11.49998 2 -2 11.49998 20.5 18)" gradientUnits="userSpaceOnUse"><stop stop-color="#FFA64B"/><stop offset=".9" stop-color="#FFAE46" stop-opacity="0"/></radialGradient><radialGradient id="h" cx="0" cy="0" r="1" gradientTransform="rotate(43.971 -9.827 29.173)scale(59.0529)" gradientUnits="userSpaceOnUse"><stop offset=".185" stop-opacity="0"/><stop offset="1" stop-opacity=".4"/></radialGradient><radialGradient id="i" cx="0" cy="0" r="1" gradientTransform="matrix(0 -11 22 0 16 27)" gradientUnits="userSpaceOnUse"><stop stop-color="#F70A8D"/><stop offset="1" stop-color="#89029C"/></radialGradient><radialGradient id="k" cx="0" cy="0" r="1" gradientTransform="matrix(-11.99998 -5.5001 2.2862 -4.98797 14 14)" gradientUnits="userSpaceOnUse"><stop stop-color="#CC7521"/><stop offset="1" stop-color="#E6872B" stop-opacity="0"/></radialGradient><radialGradient id="l" cx="0" cy="0" r="1" gradientTransform="rotate(122.005 6.952 11.043)scale(4.71699)" gradientUnits="userSpaceOnUse"><stop stop-color="#EC812A"/><stop offset="1" stop-color="#FBA84C" stop-opacity="0"/></radialGradient><radialGradient id="o" cx="0" cy="0" r="1" gradientTransform="matrix(0 3.10148 -1.5764 0 9.432 9.31)" gradientUnits="userSpaceOnUse"><stop stop-color="#EC6686"/><stop offset="1" stop-color="#EC6686" stop-opacity="0"/></radialGradient><radialGradient id="p" cx="0" cy="0" r="1" gradientTransform="rotate(81.165 5.254 16.795)scale(2.69258 1.82475)" gradientUnits="userSpaceOnUse"><stop stop-color="#EC6686"/><stop offset=".26" stop-color="#EC6686"/><stop offset="1" stop-color="#EC6686" stop-opacity="0"/></radialGradient><radialGradient id="q" cx="0" cy="0" r="1" gradientTransform="rotate(90 2.727 10.351)scale(1.5)" gradientUnits="userSpaceOnUse"><stop stop-color="#EC6686"/><stop offset="1" stop-color="#EC6686" stop-opacity="0"/></radialGradient><radialGradient id="r" cx="0" cy="0" r="1" gradientTransform="matrix(0 2 -1 0 24.371 8.624)" gradientUnits="userSpaceOnUse"><stop stop-color="#EC6686"/><stop offset="1" stop-color="#EC6686" stop-opacity="0"/></radialGradient><linearGradient id="j" x1="16" x2="16" y1="16" y2="17.5" gradientUnits="userSpaceOnUse"><stop stop-color="#ECCDFF"/><stop offset="1" stop-color="#fff"/></linearGradient><linearGradient id="m" x1="12.986" x2="9.986" y1="7" y2="14" gradientUnits="userSpaceOnUse"><stop stop-color="#CA0B4A"/><stop offset="1" stop-color="#F70A8D"/></linearGradient><linearGradient id="n" x1="24" x2="19" y1="7" y2="15" gradientUnits="userSpaceOnUse"><stop stop-color="#CA0B4A"/><stop offset="1" stop-color="#F70A8D"/></linearGradient></defs></svg>
